icons/1_Primary/Bitpay.svg

<svg width="1024" height="1024" fill="none" xmlns="http://www.w3.org/2000/svg"><g clip-path="url(#a)"><path d="M512 1024c282.77 0 512-229.23 512-512S794.77 0 512 0 0 229.23 0 512s229.23 512 512 512Z" fill="#728DBE"/><path d="M826 442.45h-32.63L774.56 522 772 532.87c-1.84.55-3.69.92-5.53 1.29-3.46.688-6.984.996-10.51.92a25.252 25.252 0 0 1-10-1.84 10.065 10.065 0 0 1-5.16-5.16 17.148 17.148 0 0 1-1.11-7.73 47.45 47.45 0 0 1 1.66-9.58l10-41.25 6.45-27.44h-33.2l-15.12 63.53a118.754 118.754 0 0 0-3.13 21.73 39.619 39.619 0 0 0 3.13 18.42c2.4 5.34 6.45 9.39 12.17 12.52 5.72 3.13 13.64 4.6 24 4.6a89.584 89.584 0 0 0 18.59-1.88c.19 0 .55-.18.74-.18a29.002 29.002 0 0 1-9 16c-4.79 4.05-11.8 6.26-21 6.26a66.012 66.012 0 0 1-10.98-.68l-6.45 26.89c4.797.544 9.623.781 14.45.71a91.011 91.011 0 0 0 26-3.31 56.55 56.55 0 0 0 19.18-10.31 62.306 62.306 0 0 0 13.46-17.13 101.543 101.543 0 0 0 8.67-24.68l22.49-94.47 4.2-17.65Zm-159.51 27c-15.29 0-18.05 0-24.31 3.14a35.635 35.635 0 0 0-11.24 9.79 50.245 50.245 0 0 0-7.55 13.86 49.734 49.734 0 0 0-2.76 16.44c0 7 1.11 12.56 3.5 16.81 2.39 4.07 6.63 6.1 12.89 6.1a20.28 20.28 0 0 0 9-2 32.004 32.004 0 0 0 8.66-6.65c.37-3.7.74-7.39 1.47-11.46.73-4.07 1.47-7.76 2.21-11.09l8.1-34.92m22.84 40.65a77.298 77.298 0 0 0-1.84 25.13c.74 8.5 4.05 21.25 7.18 27.71h-31.5c-3.87-6.47-3.68-9.61-4.42-11.64a59.862 59.862 0 0 1-13.63 8.31 40.533 40.533 0 0 1-16.76 3.33c-7.18 0-13.63-1.29-18.6-3.88a33.205 33.205 0 0 1-12.71-10.35 39.846 39.846 0 0 1-7.18-15.15 79.005 79.005 0 0 1 3.16-47.16A77.21 77.21 0 0 1 607.92 463c6.26-6.65 21.73-21.43 46.78-21.43h50.47l-15.84 68.55m-191 25.1c2.4.74 5.71.74 9.21.74a36.606 36.606 0 0 0 15.66-3.13 39.003 39.003 0 0 0 12.16-8.85 46.997 46.997 0 0 0 7.64-13.7 53.999 53.999 0 0 0 2.76-17.7c0-6.27-1.29-11.8-4.05-16-2.76-4.42-7.55-6.82-14.55-6.82h-12.9l-15.93 65.46Zm80-45.16a80.712 80.712 0 0 1-5.34 29.49 69.563 69.563 0 0 1-14.74 23 66.17 66.17 0 0 1-22.48 15.11 72.77 72.77 0 0 1-28.37 5.53 106.666 106.666 0 0 1-15.11-1.29l-9.95 39.82h-32.7l38-159.08h43.48c8.29 0 15.29 1.29 21.19 3.87a39.413 39.413 0 0 1 23.21 25.62 52.809 52.809 0 0 1 2.72 17.87l.09.06ZM429.8 535a25.19 25.19 0 0 1-9.95-1.84 10.082 10.082 0 0 1-5.15-5.16 17.222 17.222 0 0 1-1.11-7.75 47.725 47.725 0 0 1 1.66-9.6l9.95-41.34h37l6.82-27.5h-37.19l8.66-34.69-34.82 5.17-22.11 93.19a119.203 119.203 0 0 0-3.13 21.78 39.798 39.798 0 0 0 3.13 18.45c2.4 5.35 6.45 9.41 12.16 12.55 5.71 3.14 13.63 4.61 24 4.61a89.275 89.275 0 0 0 18.61-1.84c.55-.19 1.29-.37 1.84-.55l6.82-28.24a52.224 52.224 0 0 1-6.82 1.66 47.763 47.763 0 0 1-10.37 1.1Zm-83.17-93-28.91 120.91h32.8l28.72-120.83h-32.61m36.5-13.86 5-21.06h-32.7l-5 21.06h32.7Zm-137 107.59a26.386 26.386 0 0 0 14.39-3.87 37.85 37.85 0 0 0 11.81-10 47.115 47.115 0 0 0 7.75-14 49.427 49.427 0 0 0 2.77-16.41c0-7-1.11-12.35-3.5-16.41-2.39-4.06-7.2-5.72-13.47-5.72a31.702 31.702 0 0 0-7.38.92 21.52 21.52 0 0 0-8.85 4.61l-14.2 60.1c3.54.543 7.118.803 10.7.78h-.02Zm28.59-93.66A40.392 40.392 0 0 1 293 446a34.178 34.178 0 0 1 12.73 10.14 43.57 43.57 0 0 1 7.38 14.93 65.571 65.571 0 0 1 2.4 18.44 71.247 71.247 0 0 1-5.72 28.58c-3.87 8.85-8.85 17-15.31 23.41a68.347 68.347 0 0 1-22.88 15.7 69.853 69.853 0 0 1-28.41 5.72c-1.29 0-3.69 0-7-.18a86.303 86.303 0 0 1-11.25-.92c-4.24-.74-8.86-1.47-13.47-2.58a64.748 64.748 0 0 1-13.47-4.81l38-159.11 33.94-5.32-13.47 56.42a40.224 40.224 0 0 1 8.67-2.95 33.472 33.472 0 0 1 9.59-1.29l-.01-.03Z" fill="#fff"/></g><defs><clipPath id="a"><path fill="#fff" d="M0 0h1024v1024H0z"/></clipPath></defs></svg>

<svg width="1024" height="1024" viewBox="0 0 1024 1024" fill="none" xmlns="http://www.w3.org/2000/svg">
<g clip-path="url(#clip0_2_1647)">
<path d="M512 1024C794.77 1024 1024 794.77 1024 512C1024 229.23 794.77 0 512 0C229.23 0 0 229.23 0 512C0 794.77 229.23 1024 512 1024Z" fill="#728DBE"/>
<path d="M826 442.45H793.37L774.56 522L772 532.87C770.16 533.42 768.31 533.79 766.47 534.16C763.01 534.848 759.486 535.156 755.96 535.08C752.536 535.151 749.134 534.525 745.96 533.24C743.655 532.226 741.814 530.385 740.8 528.08C739.84 525.623 739.461 522.978 739.69 520.35C739.914 517.108 740.47 513.898 741.35 510.77L751.35 469.52L757.8 442.08H724.6L709.48 505.61C707.768 512.741 706.72 520.016 706.35 527.34C705.91 533.642 706.983 539.957 709.48 545.76C711.88 551.1 715.93 555.15 721.65 558.28C727.37 561.41 735.29 562.88 745.65 562.88C751.895 562.903 758.126 562.273 764.24 561C764.43 561 764.79 560.82 764.98 560.82C763.792 566.987 760.633 572.602 755.98 576.82C751.19 580.87 744.18 583.08 734.98 583.08C731.307 583.159 727.635 582.932 724 582.4L717.55 609.29C722.347 609.834 727.173 610.071 732 610C740.781 610.157 749.538 609.042 758 606.69C765.001 604.528 771.515 601.027 777.18 596.38C782.638 591.505 787.194 585.706 790.64 579.25C794.582 571.432 797.496 563.136 799.31 554.57L821.8 460.1L826 442.45ZM666.49 469.45C651.2 469.45 648.44 469.45 642.18 472.59C637.785 475.024 633.955 478.361 630.94 482.38C627.709 486.573 625.161 491.251 623.39 496.24C621.552 501.526 620.618 507.084 620.63 512.68C620.63 519.68 621.74 525.24 624.13 529.49C626.52 533.56 630.76 535.59 637.02 535.59C640.134 535.623 643.213 534.939 646.02 533.59C649.266 531.886 652.196 529.636 654.68 526.94C655.05 523.24 655.42 519.55 656.15 515.48C656.88 511.41 657.62 507.72 658.36 504.39L666.46 469.47M689.3 510.12C687.316 518.34 686.695 526.829 687.46 535.25C688.2 543.75 691.51 556.5 694.64 562.96H663.14C659.27 556.49 659.46 553.35 658.72 551.32C654.568 554.686 649.984 557.481 645.09 559.63C639.803 561.918 634.09 563.054 628.33 562.96C621.15 562.96 614.7 561.67 609.73 559.08C604.695 556.746 600.325 553.188 597.02 548.73C593.579 544.246 591.132 539.082 589.84 533.58C586.056 517.906 587.159 501.449 593 486.42C596.517 477.776 601.572 469.841 607.92 463C614.18 456.35 629.65 441.57 654.7 441.57H705.17L689.33 510.12M498.33 535.22C500.73 535.96 504.04 535.96 507.54 535.96C512.927 536.082 518.274 535.013 523.2 532.83C527.789 530.697 531.919 527.691 535.36 523.98C538.656 519.874 541.239 515.242 543 510.28C544.899 504.575 545.832 498.592 545.76 492.58C545.76 486.31 544.47 480.78 541.71 476.58C538.95 472.16 534.16 469.76 527.16 469.76H514.26L498.33 535.22ZM578.33 490.06C578.407 500.137 576.595 510.14 572.99 519.55C569.645 528.116 564.635 535.933 558.25 542.55C551.879 549.083 544.225 554.227 535.77 557.66C526.778 561.382 517.131 563.262 507.4 563.19C502.339 563.119 497.29 562.688 492.29 561.9L482.34 601.72H449.64L487.64 442.64H531.12C539.41 442.64 546.41 443.93 552.31 446.51C557.871 448.736 562.852 452.201 566.873 456.64C570.895 461.079 573.852 466.377 575.52 472.13C577.447 477.886 578.367 483.931 578.24 490L578.33 490.06ZM429.8 535C426.393 535.066 423.008 534.44 419.85 533.16C417.55 532.143 415.713 530.302 414.7 528C413.74 525.536 413.36 522.884 413.59 520.25C413.814 517.002 414.371 513.785 415.25 510.65L425.2 469.31H462.2L469.02 441.81H431.83L440.49 407.12L405.67 412.29L383.56 505.48C381.847 512.628 380.8 519.919 380.43 527.26C379.992 533.571 381.065 539.896 383.56 545.71C385.96 551.06 390.01 555.12 395.72 558.26C401.43 561.4 409.35 562.87 419.72 562.87C425.971 562.91 432.208 562.293 438.33 561.03C438.88 560.84 439.62 560.66 440.17 560.48L446.99 532.24C444.756 532.946 442.478 533.5 440.17 533.9C436.764 534.644 433.286 535.013 429.8 535ZM346.63 442L317.72 562.91H350.52L379.24 442.08H346.63M383.13 428.22L388.13 407.16H355.43L350.43 428.22H383.13ZM246.13 535.81C251.199 535.929 256.195 534.586 260.52 531.94C265.103 529.456 269.124 526.051 272.33 521.94C275.693 517.749 278.314 513.014 280.08 507.94C281.924 502.666 282.861 497.117 282.85 491.53C282.85 484.53 281.74 479.18 279.35 475.12C276.96 471.06 272.15 469.4 265.88 469.4C263.392 469.416 260.915 469.725 258.5 470.32C255.23 471.142 252.198 472.721 249.65 474.93L235.45 535.03C238.99 535.573 242.568 535.833 246.15 535.81H246.13ZM274.72 442.15C281.03 441.987 287.291 443.306 293 446C297.998 448.306 302.365 451.784 305.73 456.14C309.127 460.596 311.633 465.665 313.11 471.07C314.782 477.071 315.59 483.281 315.51 489.51C315.593 499.329 313.646 509.059 309.79 518.09C305.92 526.94 300.94 535.09 294.48 541.5C288.007 548.243 280.22 553.586 271.6 557.2C262.634 561.072 252.956 563.02 243.19 562.92C241.9 562.92 239.5 562.92 236.19 562.74C232.424 562.679 228.666 562.372 224.94 561.82C220.7 561.08 216.08 560.35 211.47 559.24C206.816 558.139 202.299 556.526 198 554.43L236 395.32L269.94 390L256.47 446.42C259.238 445.11 262.147 444.12 265.14 443.47C268.257 442.578 271.488 442.143 274.73 442.18L274.72 442.15Z" fill="white"/>
</g>
<defs>
<clipPath id="clip0_2_1647">
<rect width="1024" height="1024" fill="white"/>
</clipPath>
</defs>
</svg>
